X:1
T:Title
%%score { ( 1 3 ) | ( 2 4 ) }
L:1/8
M:6/8
K:Ab
V:1 treble nm="Grand Piano"
V:3 treble 
V:2 bass 
V:4 bass 
V:1
 z3 z2[Q:1/4=100] [CE] | [CE]2 [Ec] [Ec]2 [DB] | [DB]3 [DE]2 [DE] | [CA]2 [Ec] [DB]2 [CA] | %4
[M:5/8] [DG]-[DG]- [DG]3 |[M:1/8] E |[M:3/4] E2 d d2 c | c3 B2 F | [B,FA]2 [B,EG] [B,DF]2 [G,EG] | %9
[M:5/8] F3 z2 |[M:1/8] [CE] |[M:3/4] [CE]2 [Ec] [Ec]2 [DB] | [DB]3 [DE]2 [DE] | %13
 [CA]2 [CA] [DB]2 [Ec] |[M:5/8] [Fd]-[Fd]- [Fd]3 |[M:1/8] [DF] |[M:3/4] [DF]2 [FA] [EG]2 F | %17
 E3 [Ee]2 [Fd] | c2 c B2 B |[M:5/8] [CA]-[CA]- [CA]3 |[M:1/8] c |[M:3/4] e2 e f2 f | e6 | %23
 c2 c d2 d |[M:5/8] c-c- c3 |[M:1/8] c |[M:3/4] [GB]2 [Ac] [Bd]2 [Gf] |[M:7/8] e2 =d e3 [F_d] | %28
[M:3/4] c2 c B2 B |[M:5/8] [CA]-[CA]- [CA]3 |] %30
V:2
 z3 z2 [A,,A,] | [A,,A,]2 [A,,A,] [A,,A,]2 [A,,A,] | [A,,A,]3 [A,,A,]2 [A,,A,] | %3
 [A,,E,]2 [A,,E,] [A,,E,]2 [A,,E,] |[M:5/8] [B,,E,]-[B,,E,]- [B,,E,]3 |[M:1/8] [E,G,] | %6
[M:3/4] [E,G,]2 [E,B,E] [E,B,E]2 [E,A,E] | [E,A,E]3 [E,G,E]2 [E,G,D] | E,2 E, E,2 E, | %9
[M:5/8] z z2 E2 |[M:1/8] [A,,A,] |[M:3/4] [A,,A,]2 [A,,A,] [A,,A,]2 [A,,A,] | %12
 [A,,A,]3 [A,,A,]2 [A,,A,] | [A,,E,]2 [A,,E,] [A,,A,]2 [A,,A,] |[M:5/8] [D,A,]-[D,A,]- [D,A,]3 | %15
[M:1/8] [D,A,] |[M:3/4] [D,A,]2 [D,A,] [D,A,]2 [D,A,D] | [C,A,]3 [C,A,]2 [D,A,] | %18
 [E,A,E]2 [E,A,E] [E,G,D]2 [E,G,D] |[M:5/8] [A,,A,]-[A,,A,]- [A,,A,]3 |[M:1/8][K:treble] [A,E] | %21
[M:3/4] [A,CA]3 [A,DA]3 | [A,CA]2 [A,C] [A,C]2 [A,EA] | [A,EA]3 [A,FA]3 | %24
[M:5/8] [A,EA]2 [A,E] [A,E]2 |[M:1/8] [A,EA] |[M:3/4][K:bass] [E,E]2 [E,E] [E,E]2 [E,D] | %27
[M:7/8][K:treble] [A,CA]2 [A,_CA] [A,=CA]3[K:bass] [D,A,] | %28
[M:3/4] [E,A,E]2 [E,A,E] [E,G,D]2 [E,G,D] |[M:5/8] [A,,A,]-[A,,A,]- [A,,A,]3 |] %30
V:3
 x6 | x6 | x6 | x6 |[M:5/8] x5 |[M:1/8] x |[M:3/4] x6 | x6 | x6 |[M:5/8] [A,C]-[A,C]- [A,C]3 | %10
[M:1/8] x |[M:3/4] x6 | x6 | x6 |[M:5/8] x5 |[M:1/8] x |[M:3/4] x6 | x6 | x6 |[M:5/8] x5 | %20
[M:1/8] x |[M:3/4] x6 | z2 A A2 c | x6 |[M:5/8] z2 A A2 |[M:1/8] x |[M:3/4] x6 |[M:7/8] x7 | %28
[M:3/4] x6 |[M:5/8] x5 |] %30
V:4
 x6 | x6 | x6 | x6 |[M:5/8] x5 |[M:1/8] x |[M:3/4] x6 | x6 | x6 |[M:5/8] A,,-A,,- A,,3 |[M:1/8] x | %11
[M:3/4] x6 | x6 | x6 |[M:5/8] x5 |[M:1/8] x |[M:3/4] x6 | x6 | x6 |[M:5/8] x5 | %20
[M:1/8][K:treble] x |[M:3/4] x6 | x6 | x6 |[M:5/8] x5 |[M:1/8] x |[M:3/4][K:bass] x6 | %27
[M:7/8][K:treble] x6[K:bass] x |[M:3/4] x6 |[M:5/8] x5 |] %30

